X:121
T:Wrecker's Daughter
S:American Veteran Fifer #121
M:2/4
L:1/16
Q:1/8=220
K:D 
%%MIDI program 72
%%MIDI transpose 8
%%MIDI ratio 3 1
aaa z aaa z | aaa z aaa z | E2A2 d4{de} | d2c2B2A2 |
bbb z bbb z | bbb z bbb z | B2d2 g4{ga} | g2f2e2d2 |
ccc z ccc z | ccc z ccc z | A2ce a4 | A2ce a4 |
f2e2d2f2 | e2d2c2e2 | ddd z ddd z | d6 z2:|
e2e2f2e2 | c2c2d2c2 | B2B2f2e2 | c3GABcd |
e2e2f2e2 | c2c2d2c2 | B2B2 f2e2 | A2 z2a4:|
F4 A2d2 | F4 A2d2 | G4 B2d2 | F4 A2d2 |
E4 G2B2 | A4 d2f2 | e2^gg g2g2 | a2 z2 a4 |
F4 A2d2 | F4 A2d2 | G4 B2d2 |  F4 A2d2 |
E4 G2B2 | A4 d2f2 | e2AA B2c2 | d2 z2 d4:|


